X:1
T:Mazurka in B minor
T:Op. 33, No. 4
T:Chopin
%%score { ( 1 4 5 ) | ( 2 3 ) }
L:1/8
M:3/4
K:D
V:1 treble nm="Part 1"
V:4 treble 
V:5 treble 
V:2 bass 
V:3 bass 
V:1
!p! !>!!2!f2- | fb Pg2 fe |{/!4!f} B6 | (ce Pd2 c2 |{/d} B6) | (!3!cB P!1!!4!!3!=A2 ^G2) | %6
 (!1!A !4!c2) z!f! (!>!!3!C2- | CB, PA,2 ^G,2) | (A,2 C4) | (!2!B,2 A,2 C2 | PB,A, C2 C2 | %11
 P!1!!4!!3!B,2 ^A,2 C2 | PB,^A, F2) (!>!f2- | fb Pg2 fe |{/f} B6) | (ce Pd2 c2 | %16
{/d} B4)[K:bass] (!>!!2!D,2- | D,G, (3E,=F,E, D,=C, | !5!D,>G,, D,2 =C,2) | %19
 (!1!D,!5!G, (3E,=F,E, D,=C, |"_dim." D,>G,, D,2 =C,2) | (D,>G,, =C,2 D,>G,, | =C,2 D,>G,, C,2 | %23
 G,,6 | !2!^F,,6) |[K:treble] (fb Pg2 fe |{/!4!f} B6) | (ce Pd2 c2 |{/d} B6) | %29
 (!3!cB P!1!!4!!3!=A2 ^G2) | (!1!A !4!c2) z!f! (!>!!3!C2- | CB, PA,2 ^G,2) | (A,2 C4) | %33
 (!2!B,2 A,2 C2 | PB,A, C2 C2 | P!1!!4!!3!B,2 ^A,2 C2 | PB,^A, F2) (!>!f2- | fb Pg2 fe |{/f} B6) | %39
 (ce Pd2 c2 |{/d} B4)[K:bass] !>!!2!D,2- |"_sotto voce" D,G, (3E,=F,E, D,=C, | !5!D,>G,, D,2 =C,2 | %43
 (!1!D,!5!G, (3E,=F,E, D,=C, |"_dim." D,>G,, D,2 =C,2) | (D,>G,, =C,2 D,>G,, | =C,2 D,>G,, C,2 | %47
 G,,6 | _G,,4 =F,,2) ||[K:Bb][K:treble]!f! z2 (!>!!5![FBd]2 !>!!4![_GBe]2 | ._g) x/ (!4!f2 f2 x/) | %51
 .b2 (!>![FBd]2 !>![_GBe]2 | ._g) x/ (f2 f2 x/) | z2 (!>![FBd]2 !>![_GBe]2 | ._g) x/ (f2 f2 x/) | %55
 .[bb']2 (!>![FBd]2 !>![_GBe]2 | ._g) x/ (f2 f2) x/ | z2 (!>![Be=g]2 !>![_ce_a]2 | %58
 ._c') x/ (b2 b2) x/ |!8va(! .[e'e'']2!8va)! (!>![Beg]2 !>![_ce_a]2 | ._c') x/ (b2 b2 x/ | !2!f6 | %62
 [eg]2 _g2 f2 | =e6) | z6 |[K:D]!p! (fb Pg2 fe |{/!4!f} B6) | (ce Pd2 c2 |{/d} B6) | %69
 (!3!cB P!1!!4!!3!=A2 ^G2) | (!1!A !4!c2) z!f! (!>!!3!C2- | CB, PA,2 ^G,2) | (A,2 C4) | %73
 (!2!B,2 A,2 C2 | PB,A, C2 C2 | P!1!!4!!3!B,2 ^A,2 C2 | PB,^A, F2) (!>!f2- | fb Pg2 fe |{/f} B6) | %79
 (ce Pd2 c2 |{/d} B4)[K:bass] (!>!!3!D,2- |"_sotto voce" D,G, (3E,=F,E, D,=C, | %82
 !5!D,>G,, D,2 =C,2) | (!1!D,!5!G, (3E,=F,E, D,=C, |"_dim." D,>G,, D,2 =C,2) | %85
 (D,>G,, =C,2 D,>G,, | =C,2 D,>G,, C,2 | G,,6 | !2!^F,,6) |[K:treble] (fb Pg2 fe |{/!4!f} B6) | %91
 (ce Pd2 c2 |{/d} B6) | (!3!cB P!1!!4!!3!=A2 ^G2) | (!1!A !4!c2) z!f! (!>!!3!C2- | CB, PA,2 ^G,2) | %96
 (A,2 C4) | (!2!B,2 A,2 C2 | PB,A, C2 C2 | P!1!!4!!3!B,2 ^A,2 C2 | PB,^A,) F2 (!>!f2- | fb Pg2 fe | %102
{/f} B6) | (ce Pd2 c2 |{/d} B4)[K:bass] !>!!2!D,2- |"_sotto voce" D,G, (3E,=F,E, D,=C, | %106
 !5!D,>G,, D,2 =C,2 | (!1!D,!5!G, (3E,=F,E, D,=C, |"_dim." D,>G,, D,2 =C,2) | (D,>G,, =C,2 D,>G,, | %110
 =C,2 D,>G,, C,2 | G,,6 | _G,,4 =F,,2) ||[K:Bb][K:treble]!f! z2 (!>!!5![FBd]2 !>!!4![_GBe]2 | %114
 ._g) x/ !4!f2 f2 x/ | .b2 (!>![FBd]2 !>![_GBe]2 | ._g) x/ (f2 f2) x/ | z2 (!>![FBd]2 !>![_GBe]2 | %118
 ._g) x/ (f2 f2) x/ |!8va(! .[bb']2!8va)! (!>![FBd]2 !>![_GBe]2 | ._g) x/ (f2 f2) x/ | %121
 z2 (!>![Be=g]2 !>![_ce_a]2 | ._c') x/ (b2 b2) x/ |!8va(! .[e'e'']2!8va)! (!>![Beg]2 !>![_ce_a]2 | %124
 ._c') x/ (b2 b2) x/ | !2!f6 | [eg]2 _g2 f2 | =e6 | z6 ||[K:B]!<(! (!2!d!1!e ^e2 f2 | %130
 ^^f>g!<)! !1!=e3 !2!d) | (!3!dPc ^B2 !3!c2 | !>!e4 d2) |!<(! (!2!Bc !1!^^c2 d2!<)! | %134
 !4!f!>(!!5!e !4!^c2!>)! P!2!G2) | (^^F>G B2 A2 | !>!!1!!2!^^F4 ^F2) | (!4!d!<(!!1!e f2 d'2!<)! | %138
!>(! c'b g2 e2!>)! | !3!dPc ^B2 !2!c2 |!>(! e4 d2)!>)! | (!2!d3 P!3!!5!!4!dcB | %142
!<(! !1!Ad f2 b2!<)! | a^e !4!g3 f | !>!!2!d2 F!4!f!5!^e=e) |!<(! (de !1!^e2 f2 | %146
 ^^f>!<)!g !1!=e3 !2!d) | (!3!dPc ^B2 !3!c2 | !>!e4 d2) |!<(! (!2!Bc !1!^^c2 d2!<)! | %150
!>(! !4!f!5!e !4!^c2 P!2!G2)!>)! | (^^F>G B2 A2 | !>!!1!!2!^^F4 ^F2) |!<(! (!4!d!1!e f2 d'2!<)! | %154
!>(! c'b g2 e2!>)! | !3!dPc ^B2 !2!c2 |!>(! e4 d2)!>)! | (!2!d3 PdcB |!<(! !1!Ad f2 b2!<)! | %159
 a^e !4!g3 f | d4 f2) |!f!!>(! [gg']>[ff'] .[ee']2!>)! (!>!!4![EA]2 | %162
 [DB])z/(!3![Fc]/ [Bd]2) ([ff']2 |!>(! [gg']>[ff']!>)! .[ee']2) (!>![EA]2 | %164
 [DB])z/([Fc]/ [Bd]2) (!>!!1!!2![df]2 | .!4!!5![c'e'])z/([fa]<[eg])([fa]/ !>![eg]2) | %166
 .!4!!5![bd']z/(!1!!4![eg]<[df])([eg]/ !>![df]2) | .[ac']z/(!2!!4![df]<[ce])([df]/ !>![ce]2) | %168
 .!1!!2![Bd]z/(!2!!3![ce]/ !>![^^cg]2 [df]2) |!>(! ([gg']>[ff']!>)! .[ee']2) (!>![EA]2 | %170
 [DB])z/([Fc]/ [Bd]2) ([ff']2 | [gg']>[ff'] .[ee']2) ([EA]2 | [DB])z/([Fc]/ [Bd]2) (!>![df]2 | %173
!f! .[c'e'])z/([fa]<[eg])([fa]/ !>![eg]2) | .[bd']z/([eg]<[df])([eg]/ !>![df]2) | %175
 .[ac']z/([df]<[ce])([df]/ !>![ce]2) | x6 | x6 | x6 | z6 | z6 | z6 | z6 | z6 | z6 | z6 | z6 | z6 | %188
 z6 | z6 | z6 | z6 | z6 ||[K:D] (fb Pg2 fe |{/!4!f} B6) | (ce Pd2 c2 |{/d} B6) | %197
 (!3!cB P!1!!4!!3!=A2 ^G2) | (!1!A !4!c2) z!f! (!>!!3!C2- | CB, PA,2 ^G,2) | (A,2 C4) | %201
 (!2!B,2 A,2 C2 | PB,A, C2 C2 | P!1!!4!!3!B,2 ^A,2 C2 | PB,^A, F2) (!>!f2- | fb Pg2 fe |{/f} B6) | %207
 (ce Pd2 c2 |{/d} B4)[K:bass] (!>!!2!D,2- | D,G, (3E,=F,E, D,=C, | !5!D,>G,, D,2 =C,2) | %211
 (!1!D,!5!G, (3E,=F,E, D,=C, |"_dim." D,>G,, D,2 =C,2) | (D,>G,, =C,2 D,>G,, | =C,2 D,>G,, C,2 | %215
 D,>G,,"_dim." D,2 =C,2 | D,>G,, D,2 =C,2) | z6 | z6 | z6 | z6 | z6 | z6 | %223
[K:treble]"^risvegliato" (G2 !>!=C3 !4!B, |[K:bass] [E,^A,^C]>F,- [E,F,A,C]2 [D,F,B,]2) |] %225
V:2
 z2 | B,,2 [G,B,E]2 [G,B,E]2 | B,,2 [F,B,D]2 [F,B,D]2 | B,,2 [F,^A,E]2 [F,A,E]2 | %4
 B,,2 [F,B,D]2 [F,B,D]2 | C,,2 [C,^E,B,]2 [C,E,B,]2 | (F,,2 [C,A,]2) z2 | z6 | z6 | %9
 !2!^G,2 F,2 A,2 | ^G,F, A,2 A,2 | ^G,2 F,2 ^A,2 | ^G, !1!F,3 z2 | B,,2 [=G,B,E]2 [G,B,E]2 | %14
 B,,2 [F,B,D]2 [F,B,D]2 | B,,2 [F,^A,E]2 [F,A,E]2 | B,,2 [F,B,D]2 z2 | %17
[K:treble] [B,=F]2 [=CE]2 !2![CE]2 | [G,B,=F]2 [G,B,F]2 [=CE]2 | [B,=F]2 [=CE]2 [CE]2 | %20
 [G,B,=F]2 [G,B,F]2 [=CE]2 | [G,B,=F]2 [=CE]2 [G,B,F]2 | [=CE]2 [G,B,=F]2 [CE]2 |[K:bass] G,6 | %24
 !4!^F,6 | [B,,,B,,]2 [G,B,E]2 [G,B,E]2 | B,,2 [F,B,D]2 [F,B,D]2 | B,,2 [F,^A,E]2 [F,A,E]2 | %28
 B,,2 [F,B,D]2 [F,B,D]2 | C,,2 [C,^E,B,]2 [C,E,B,]2 | (F,,2 [C,A,]2) z2 | z6 | z6 | %33
 !2!^G,2 F,2 A,2 | ^G,F, A,2 A,2 | ^G,2 F,2 ^A,2 | ^G, !1!F,3 z2 | B,,2 [=G,B,E]2 [G,B,E]2 | %38
 B,,2 [F,B,D]2 [F,B,D]2 | B,,2 [F,^A,E]2 [F,A,E]2 | B,,2 [F,B,D]2 z2 | %41
[K:treble] [B,=F]2 [=CE]2 !2![CE]2 | [G,B,=F]2 [G,B,F]2 [=CE]2 | [B,=F]2 [=CE]2 [CE]2 | %44
 [G,B,=F]2 [G,B,F]2 [=CE]2 | [G,B,=F]2 [=CE]2 [G,B,F]2 | [=CE]2 [G,B,=F]2 [CE]2 |[K:bass] G,6 | %48
 _G,4 =F,2 ||[K:Bb] .B,,,2 !>![F,B,D]2 !>![_G,B,E]2 | z2 !>![B,DF]4 | %51
 .B,,,2 !>![F,B,D]2 !>![_G,B,E]2 | z2 !>![B,DF]4 | .B,,,2 !>![F,B,D]2 !>![_G,B,E]2 | %54
 z2 !>![B,DF]4 | .[B,,,B,,]2 !>![F,B,D]2 !>![_G,B,E]2 | z2 !>![B,DF]4 | %57
 .E,,2[K:treble] !>![B,E=G]2 !>![_CE_A]2 |[K:bass] .E,2 !>![B,EG]2 E,2 | %59
 .E,,2[K:treble] !>![B,EG]2 !>![_CE_A]2 |[K:bass] .E,2[K:treble] [_DGB]2[K:bass] E,2 | %61
[K:bass] .E,,2 !4!_D2 =D2 | E2 =E2 !2!F2 | (^F2 ^F,2!>(!{/=A,} !1!=G,2 | ^F,2 !4!^C,2 D,2)!>)! | %65
[K:D] B,,2 [G,B,E]2 [G,B,E]2 | B,,2 [F,B,D]2 [F,B,D]2 | B,,2 [F,^A,E]2 [F,A,E]2 | %68
 B,,2 [F,B,D]2 [F,B,D]2 | C,,2 [C,^E,B,]2 [C,E,B,]2 | (F,,2 [C,A,]2) z2 | z6 | z6 | %73
 !2!^G,2 F,2 A,2 | ^G,F, A,2 A,2 | ^G,2 F,2 ^A,2 | ^G, !1!F,3 z2 | B,,2 [=G,B,E]2 [G,B,E]2 | %78
 B,,2 [F,B,D]2 [F,B,D]2 | B,,2 [F,^A,E]2 [F,A,E]2 | B,,2 [F,B,D]2 z2 | %81
[K:treble] [B,=F]2 [=CE]2 !2![CE]2 | [G,B,=F]2 [G,B,F]2 [=CE]2 | [B,=F]2 [=CE]2 [CE]2 | %84
 [G,B,=F]2 [G,B,F]2 [=CE]2 | [G,B,=F]2 [=CE]2 [G,B,F]2 | [=CE]2 [G,B,=F]2 [CE]2 |[K:bass] G,6 | %88
 !4!^F,6 | [B,,,B,,]2 [G,B,E]2 [G,B,E]2 | B,,2 [F,B,D]2 [F,B,D]2 | B,,2 [F,^A,E]2 [F,A,E]2 | %92
 B,,2 [F,B,D]2 [F,B,D]2 | C,,2 [C,^E,B,]2 [C,E,B,]2 | (F,,2 [C,A,]2) z2 | z6 | z6 | %97
 !2!^G,2 F,2 A,2 | ^G,F, A,2 A,2 | ^G,2 F,2 ^A,2 | ^G, !1!F,3 z2 | B,,2 [=G,B,E]2 [G,B,E]2 | %102
 B,,2 [F,B,D]2 [F,B,D]2 | B,,2 [F,^A,E]2 [F,A,E]2 | B,,2 [F,B,]2 z2 | %105
[K:treble] [B,=F]2 [=CE]2 !2![CE]2 | [G,B,=F]2 [G,B,F]2 [=CE]2 | [B,=F]2 [=CE]2 [CE]2 | %108
 [G,B,=F]2 [G,B,F]2 [=CE]2 | [G,B,=F]2 [=CE]2 [G,B,F]2 | [=CE]2 [G,B,=F]2 [CE]2 |[K:bass] G,6 | %112
 _G,4 =F,2 ||[K:Bb] .B,,,2 !>![F,B,D]2 !>![_G,B,E]2 | z2 !>![B,DF]4 | %115
 .B,,,2 !>![F,B,D]2 !>![_G,B,E]2 | z2 !>![B,DF]4 | .B,,,2 !>![F,B,D]2 !>![_G,B,E]2 | %118
 z2 !>![B,DF]4 | .[B,,,B,,]2 !>![F,B,D]2 !>![_G,B,E]2 | z2 !>![B,DF]4 | %121
 .E,,2[K:treble] !>![B,E=G]2 !>![_CE_A]2 |[K:bass] .E,2 !>![B,EG]2 E,2 | %123
 E,,2[K:treble] !>![B,EG]2 !>![_CE_A]2 |[K:bass] .E,2[K:treble] !>![_DGB]2[K:bass] E,2 | %125
[K:bass] .E,,2 !4!_D2 =D2 | E2 =E2 !2!F2 | (^F2 ^F,2{/!1!^A,} ^G,2 |!>(! ^F,2 ^C,2 !2!D,2)!>)! || %129
[K:B] B,,2 [F,B,D]2[K:treble] [DB]2 |[K:bass] =E,,2[K:treble] [B,CEG]2 z2 | %131
[K:bass] F,,2 [F,A,E]2 [F,A,E]2 | ^^F,,2 [D,A,D]2 [D,A,D]2 | G,,2 [D,G,B,]2 [D,G,B,]2 | %134
 C,,2 [G,CE]2 z2 | ^^C,2 [G,B,^E]2 [G,A,E]2 | D,2 [^^F,A,D]2 [C,^F,A,E]2 | B,,2 [F,B,D]2 z2 | %138
 E,,2[K:treble] [B,CEG]2 z2 |[K:bass] F,,2 [F,A,E]2 [F,A,E]2 | ^^F,,2 [D,A,D]2 [D,A,D]2 | %141
 G,,2 [^E,G,B,D]2 z2 | A,,2 [F,A,D]2 [F,A,D]2 | A,,2 [G,A,^^C]2 [G,A,^E]2 | %144
 D,2 [F,A,D]2 [C,F,A,=E]2 | B,,2 [=A,B,D]2[K:treble] [B,D=A]2 | %146
[K:bass] =E,,2[K:treble] [B,CEG]2 z2 |[K:bass] F,,2 [F,A,E]2 [F,A,E]2 | ^^F,,2 [D,A,D]2 [D,A,D]2 | %149
 G,,2 [D,G,B,]2 [D,G,B,]2 | C,,2 [G,CE]2 z2 | ^^C,2 [G,B,^E]2 [G,A,E]2 | %152
 D,2 [^^F,A,D]2 [C,^F,A,E]2 | B,,2 [F,B,D]2 z2 | E,,2[K:treble] [B,CEG]2 z2 | %155
[K:bass] F,,2 [F,A,E]2 [F,A,E]2 | ^^F,,2 [D,A,D]2 [D,A,D]2 | G,,2 [^E,G,B,D]2 z2 | %158
 A,,2 [F,A,D]2 [F,A,D]2 | A,,2 [G,A,^^C]2 [G,A,^E]2 | D,2 [F,A,D]2 [F,A,F]2 | %161
[K:treble] .[A=e]z/(!1!F/ F,2)[K:bass] (!3!F,,2 | B,,)z/(F,/ [B,D]2)[K:treble] !>!!2![Bd]2 | %163
 .[Ae]z/(F/ F,2)[K:bass] (F,,2 | B,,)z/(F,/ [B,D]2) z2 | .E,z/[K:treble](c<[EG])(c/ [EG]2) | %166
[K:bass] .F,,z/[K:treble](B<[DF])(B/ [DF]2) |[K:bass] .F,,z/[K:treble](A<[CE])(A/ [CE]2) | %168
[K:bass] .B,,2 ^E2 F2 |[K:treble] .[A=e]z/(F/ F,2)[K:bass] (F,,2 | %170
 .B,,)z/(F,/ [B,D]2)[K:treble] !>![Bd]2 | .[Ae]z/(F/ F,2)[K:bass] (F,,2 | .B,,)z/(F,/ [B,D]2) z2 | %173
 .E,z/[K:treble](c<[EG])(c/ [EG]2) |[K:bass] .F,,z/[K:treble](B<[DF])(B/ [DF]2) | %175
[K:bass] .F,,z/[K:treble](A<[CE])(A/ [CE]2) |[K:bass] z z/!pp! (!2!G,<F,)(G,/ F,2) | %177
 (G,>F, !1!E,2 !5!F,,2 | !1!B,,>!4!C, D,2 F,2 | G,>F, E,2 F,,2 | B,,>C, D,2 F,2 | !1!E6) | !1!D6 | %183
 (!1!!2!C6 | D,>E, G,3 F, | !2!G,>F, E,2 F,,2 | B,,>C, D,2 F,2 | =G,>F, !1!E,2 F,,2 | %188
 B,,>C, =D,2 F,2 | =G,F, !1!E,2 =G,,2 | =G,F, E,2 ^G,,2 | =G,>F, E,2 =A,,2 | =G,>F, E,2 ^A,,2) || %193
[K:D] B,,2 [G,B,E]2 [G,B,E]2 | B,,2 [F,B,D]2 [F,B,D]2 | B,,2 [F,^A,E]2 [F,A,E]2 | %196
 B,,2 [F,B,D]2 [F,B,D]2 | C,,2 [C,^E,B,]2 [C,E,B,]2 | (F,,2 [C,A,]2) z2 | z6 | z6 | %201
 !2!^G,2 F,2 A,2 | ^G,F, A,2 A,2 | ^G,2 F,2 ^A,2 | ^G, !1!F,3 z2 | B,,2 [=G,B,E]2 [G,B,E]2 | %206
 B,,2 [F,B,D]2 [F,B,D]2 | B,,2 [F,^A,E]2 [F,A,E]2 | B,,2 [F,B,D]2 z2 | %209
[K:treble] [B,=F]2 [=CE]2 !2![CE]2 | [G,B,=F]2 [G,B,F]2 [=CE]2 | [B,=F]2 [=CE]2 [CE]2 | %212
 [G,B,=F]2 [G,B,F]2 [=CE]2 | [G,B,=F]2 [=CE]2 [G,B,F]2 | [=CE]2 [G,B,=F]2 [CE]2 | %215
 [G,B,=F]2 [G,B,F]2 [=CE]2 | [G,B,=F]2 [G,B,F]2 [=CE]2 | (G6 | =C6 | G6 | =C6 | G6- | G6) | z6 | %224
[K:bass] F,,2 F,,2 [B,,,B,,]2 |] %225
V:3
 x2 | x6 | x6 | x6 | x6 | x6 | x6 | x6 | x6 | (C,6 | C,6 | C,6 | C,2 !5!F,,4) | x6 | x6 | x6 | x6 | %17
[K:treble] x6 | x6 | x6 | x6 | x6 | x6 |[K:bass] x6 | x6 | x6 | x6 | x6 | x6 | x6 | x6 | x6 | x6 | %33
 (C,6 | C,6 | C,6 | C,2 !5!F,,4) | x6 | x6 | x6 | x6 |[K:treble] x6 | x6 | x6 | x6 | x6 | x6 | %47
[K:bass] x6 | x6 ||[K:Bb] x6 | .B,,2 z2 F,2 | x6 | .B,,2 z2 F,2 | x6 | .B,,2 z2 F,2 | x6 | %56
 .B,,2 z2 F,2 | x2[K:treble] x4 |[K:bass] x6 | x2[K:treble] x4 | %60
[K:bass] x2[K:treble] x2[K:bass] x2 |[K:bass] x6 | x6 | x6 | x6 |[K:D] x6 | x6 | x6 | x6 | x6 | %70
 x6 | x6 | x6 | (C,6 | C,6 | C,6 | C,2 !5!F,,4) | x6 | x6 | x6 | x6 |[K:treble] x6 | x6 | x6 | x6 | %85
 x6 | x6 |[K:bass] x6 | x6 | x6 | x6 | x6 | x6 | x6 | x6 | x6 | x6 | (C,6 | C,6 | C,6 | %100
 C,2 !5!F,,4) | x6 | x6 | x6 | x6 |[K:treble] x6 | x6 | x6 | x6 | x6 | x6 |[K:bass] x6 | x6 || %113
[K:Bb] x6 | .B,,2 z2 F,2 | x6 | .B,,2 z2 F,2 | x6 | .B,,2 z2 F,2 | x6 | .B,,2 z2 F,2 | %121
 x2[K:treble] x4 |[K:bass] x6 | x2[K:treble] x4 |[K:bass] x2[K:treble] x2[K:bass] x2 |[K:bass] x6 | %126
 x6 | x6 | x6 ||[K:B] x4[K:treble] x2 |[K:bass] x2[K:treble] x4 |[K:bass] x6 | x6 | x6 | x6 | x6 | %136
 x6 | x6 | x2[K:treble] x4 |[K:bass] x6 | x6 | x6 | x6 | x6 | x6 | x4[K:treble] x2 | %146
[K:bass] x2[K:treble] x4 |[K:bass] x6 | x6 | x6 | x6 | x6 | x6 | x6 | x2[K:treble] x4 | %155
[K:bass] x6 | x6 | x6 | x6 | x6 | x6 |[K:treble] x4[K:bass] x2 | x4[K:treble] x2 | x4[K:bass] x2 | %164
 x6 | x3/2[K:treble] x9/2 |[K:bass] x3/2[K:treble] x9/2 |[K:bass] x3/2[K:treble] x9/2 | %168
[K:bass] x2 B,4 |[K:treble] x4[K:bass] x2 | x4[K:treble] x2 | x4[K:bass] x2 | x6 | %173
 x3/2[K:treble] x9/2 |[K:bass] x3/2[K:treble] x9/2 |[K:bass] x3/2[K:treble] x9/2 |[K:bass] x6 | %177
 x6 | x6 | x6 | x6 | !1!E>(!3!A,G,>A, G,2) | !1!D>(!3!G,F,>G, F,2) | !1!!2!C>F,E,>F, E,2 | x6 | %185
 x6 | x6 | x6 | x6 | x6 | x6 | x6 | x6 ||[K:D] x6 | x6 | x6 | x6 | x6 | x6 | x6 | x6 | (C,6 | C,6 | %203
 C,6 | C,2 !5!F,,4) | x6 | x6 | x6 | x6 |[K:treble] x6 | x6 | x6 | x6 | x6 | x6 | x6 | x6 | x6 | %218
 x6 | x6 | x6 | x6 | x6 | x6 |[K:bass] x6 |] %225
V:4
 x2 | x6 | x6 | x6 | x6 | x6 | x6 | x6 | x6 | x6 | x6 | x6 | x6 | x6 | x6 | x6 | x4[K:bass] x2 | %17
 x6 | x6 | x6 | x6 | x6 | x6 | x6 | x6 |[K:treble] x6 | x6 | x6 | x6 | x6 | x6 | x6 | x6 | x6 | %34
 x6 | x6 | x6 | x6 | x6 | x6 | x4[K:bass] x2 | x6 | x6 | x6 | x6 | x6 | x6 | x6 | x6 || %49
[K:Bb][K:treble] x6 | x z/ d<cd/ B2 | x6 | x z/ d<cd/ B2 | x6 | x z/ d<cd/ B2 | x6 | %56
 x z/ d<cd/ B2 | x6 | x z/ g<fg/ e2 |!8va(! x2!8va)! x4 | x z/ g<fg/ _f2- | %61
 z2!>(! !5![Bg]2 !4![_c_a]2 | x2 (_d4 | [^A^c]6)!>)! | x6 |[K:D] x6 | x6 | x6 | x6 | x6 | x6 | x6 | %72
 x6 | x6 | x6 | x6 | x6 | x6 | x6 | x6 | x4[K:bass] x2 | x6 | x6 | x6 | x6 | x6 | x6 | x6 | x6 | %89
[K:treble] x6 | x6 | x6 | x6 | x6 | x6 | x6 | x6 | x6 | x6 | x6 | x6 | x6 | x6 | x6 | %104
 x4[K:bass] x2 | x6 | x6 | x6 | x6 | x6 | x6 | x6 | x6 ||[K:Bb][K:treble] x6 | x z/ d<cd/ B2 | x6 | %116
 x z/ d<cd/ B2 | x6 | x z/ d<cd/ B2 |!8va(! x2!8va)! x4 | x z/ d<cd/ B2 | x6 | x z/ g<fg/ e2 | %123
!8va(! x2!8va)! x4 | x z/ g<fg/ _f2- | z2!>(! !5![Bg]2 !4![_c_a]2 | x2 (_d4 | [^A^c]6)!>)! | x6 || %129
[K:B] x6 | x6 | x6 | x6 | x6 | x6 | x6 | x6 | x6 | x6 | x6 | x6 | x6 | x6 | x6 | x6 | x6 | x6 | %147
 x6 | x6 | x6 | x6 | x6 | x6 | x6 | x6 | x6 | x6 | x6 | x6 | x6 | x6 | x6 | x6 | x6 | x6 | x6 | %166
 x6 | x6 | x6 | x6 | x6 | x6 | x6 | x6 | x6 | x6 | x6 | x6 | x6 | x6 | x6 | x6 | x6 | x6 | x6 | %185
 x6 | x6 | x6 | x6 | x6 | x6 | x6 | x6 ||[K:D] x6 | x6 | x6 | x6 | x6 | x6 | x6 | x6 | x6 | x6 | %203
 x6 | x6 | x6 | x6 | x6 | x4[K:bass] x2 | x6 | x6 | x6 | x6 | x6 | x6 | x6 | x6 | x6 | x6 | x6 | %220
 x6 | x6 | x6 |[K:treble] x6 |[K:bass] x6 |] %225
V:5
 x2 | x6 | x6 | x6 | x6 | x6 | x6 | x6 | x6 | x6 | x6 | x6 | x6 | x6 | x6 | x6 | x4[K:bass] x2 | %17
 x6 | x6 | x6 | x6 | x6 | x6 | x6 | x6 |[K:treble] x6 | x6 | x6 | x6 | x6 | x6 | x6 | x6 | x6 | %34
 x6 | x6 | x6 | x6 | x6 | x6 | x4[K:bass] x2 | x6 | x6 | x6 | x6 | x6 | x6 | x6 | x6 || %49
[K:Bb][K:treble] x6 | x6 | x6 | x6 | x6 | x6 | x6 | x6 | x6 | x6 |!8va(! x2!8va)! x4 | x6 | x6 | %62
 B6 | x6 | x6 |[K:D] x6 | x6 | x6 | x6 | x6 | x6 | x6 | x6 | x6 | x6 | x6 | x6 | x6 | x6 | x6 | %80
 x4[K:bass] x2 | x6 | x6 | x6 | x6 | x6 | x6 | x6 | x6 |[K:treble] x6 | x6 | x6 | x6 | x6 | x6 | %95
 x6 | x6 | x6 | x6 | x6 | x6 | x6 | x6 | x6 | x4[K:bass] x2 | x6 | x6 | x6 | x6 | x6 | x6 | x6 | %112
 x6 ||[K:Bb][K:treble] x6 | x6 | x6 | x6 | x6 | x6 |!8va(! x2!8va)! x4 | x6 | x6 | x6 | %123
!8va(! x2!8va)! x4 | x6 | x6 | B6 | x6 | x6 ||[K:B] x6 | x6 | x6 | x6 | x6 | x6 | x6 | x6 | x6 | %138
 x6 | x6 | x6 | x6 | x6 | x6 | x6 | x6 | x6 | x6 | x6 | x6 | x6 | x6 | x6 | x6 | x6 | x6 | x6 | %157
 x6 | x6 | x6 | x6 | x6 | x6 | x6 | x6 | x6 | x6 | x6 | x6 | x6 | x6 | x6 | x6 | x6 | x6 | x6 | %176
 x6 | x6 | x6 | x6 | x6 | x6 | x6 | x6 | x6 | x6 | x6 | x6 | x6 | x6 | x6 | x6 | x6 ||[K:D] x6 | %194
 x6 | x6 | x6 | x6 | x6 | x6 | x6 | x6 | x6 | x6 | x6 | x6 | x6 | x6 | x4[K:bass] x2 | x6 | x6 | %211
 x6 | x6 | x6 | x6 | x6 | x6 | x6 | x6 | x6 | x6 | x6 | x6 |[K:treble] x6 |[K:bass] x6 |] %225

